X:25
T:Lascia ch'io pianga (Rinaldo)
C:Handel, G.F.
M:3/4
L:1/8
Q:1/4=60
K:F
|:A2|d4 cd|e2 dc B2|c4 de|f4 e2|
d4 ef|g2 fe d2|c4 Bc|d4:|

